; generated by PrusaSlicer 2.7.1+win64 on 2024-03-02 at 09:52:54 UTC

; 

; external perimeters extrusion width = 0.42mm
; perimeters extrusion width = 0.44mm
; infill extrusion width = 0.44mm
; solid infill extrusion width = 0.44mm
; top infill extrusion width = 0.40mm
; support material extrusion width = 0.36mm
; first layer extrusion width = 0.42mm

M201 X500 Y500 Z100 E5000 ; sets maximum accelerations, mm/sec^2
M203 X500 Y500 Z10 E60 ; sets maximum feedrates, mm / sec
M204 S500 T1000 ; sets acceleration (S) and retract acceleration (R), mm/sec^2
M205 X8.00 Y8.00 Z0.40 E5.00 ; sets the jerk limits, mm/sec
M205 S0 T0 ; sets the minimum extruding and travel feed rate, mm/sec

; printing object ON_pin.STL id:0 copy 0
; stop printing object ON_pin.STL id:0 copy 0

;TYPE:Custom
G90 ; use absolute coordinates
M83 ; extruder relative mode
M104 S150 ; set temporary nozzle temp to prevent oozing during homing
M140 S60 ; set final bed temp
G4 S30 ; allow partial nozzle warmup
G28 ; home all axis
G1 Z50 F240
G1 X2.0 Y10 F3000
M104 S205 ; set final nozzle temp
M190 S60 ; wait for bed temp to stabilize
M109 S205 ; wait for nozzle temp to stabilize
G1 Z0.28 F240
G92 E0
G1 X2.0 Y140 E10 F1500 ; prime the nozzle
G1 X2.3 Y140 F5000
G92 E0
G1 X2.3 Y10 E10 F1200 ; prime the nozzle
G92 E0
G21 ; set units to millimeters
G90 ; use absolute coordinates
M83 ; use relative distances for extrusion
; Filament gcode
M107
;LAYER_CHANGE
;Z:0.2
;HEIGHT:0.2
;BEFORE_LAYER_CHANGE
G92 E0
;0.2


G1 E-11 F5400
G1 Z.2 F9000
;AFTER_LAYER_CHANGE
;0.2
G1 X97.945 Y96.617
G1 Z.2
G1 E11 F2400
M204 S500
;TYPE:Skirt/Brim
;WIDTH:0.42
G1 F1200
G1 X99.117 Y95.445 E.05197
G1 X100.581 Y94.54 E.05397
G1 X101.772 Y94.346 E.03784
G1 X118.228 Y94.346 E.51597
G1 X119.904 Y94.741 E.05399
G1 X120.883 Y95.445 E.03781
G1 X122.055 Y96.617 E.05197
G1 X122.96 Y98.081 E.05397
G1 X123.154 Y99.272 E.03784
G1 X123.154 Y120.728 E.67274
G1 X122.759 Y122.404 E.05399
G1 X122.055 Y123.383 E.03781
G1 X120.883 Y124.555 E.05197
G1 X119.419 Y125.46 E.05397
G1 X118.228 Y125.654 E.03784
G1 X101.772 Y125.654 E.51597
G1 X100.096 Y125.259 E.05399
G1 X99.117 Y124.555 E.03781
G1 X97.945 Y123.383 E.05197
G1 X97.04 Y121.919 E.05397
G1 X96.846 Y120.728 E.03784
G1 X96.846 Y99.272 E.67274
G1 X97.241 Y97.596 E.05399
G1 X97.91 Y96.666 E.03592
G1 X98.21 Y96.887 F9000
G1 F1200
G1 X98.212 Y96.884 E.00011
G1 X99.384 Y95.712 E.05197
G1 X100.782 Y94.871 E.05115
G1 X101.772 Y94.723 E.03139
G1 X118.228 Y94.723 E.51597
G1 X119.812 Y95.117 E.05118
G1 X120.616 Y95.712 E.03136
G1 X121.788 Y96.884 E.05197
G1 X122.629 Y98.282 E.05115
G1 X122.777 Y99.272 E.03139
G1 X122.777 Y120.728 E.67274
G1 X122.383 Y122.312 E.05118
G1 X121.788 Y123.116 E.03136
G1 X120.616 Y124.288 E.05197
G1 X119.218 Y125.129 E.05115
G1 X118.228 Y125.277 E.03139
G1 X101.772 Y125.277 E.51597
G1 X100.188 Y124.883 E.05118
G1 X99.384 Y124.288 E.03136
G1 X98.212 Y123.116 E.05197
G1 X97.371 Y121.718 E.05115
G1 X97.223 Y120.728 E.03139
G1 X97.223 Y99.272 E.67274
G1 X97.617 Y97.688 E.05118
G1 X98.174 Y96.935 E.02937
G1 E-7.7 F5400
;WIPE_START
G1 F7200
G1 X98.21 Y96.887 E-.04275
G1 X98.212 Y96.884 E-.00257
G1 X99.384 Y95.712 E-1.18094
G1 X100.782 Y94.871 E-1.16242
G1 X101.772 Y94.723 E-.71321
G1 X102.05 Y94.723 E-.19811
;WIPE_END
G1 X101.148 Y99.164 F9000
G1 E11 F2400
G1 F1200
G1 X101.664 Y98.648 E.02288
G1 X102.298 Y98.403 E.02131
G1 X117.724 Y98.407 E.48367
G1 X118.282 Y98.613 E.01865
G1 X118.801 Y99.101 E.02234
G1 X119.097 Y99.798 E.02374
G1 X119.097 Y120.202 E.63975
G1 X118.852 Y120.836 E.02131
G1 X118.336 Y121.352 E.02288
G1 X117.702 Y121.597 E.02131
G1 X102.298 Y121.597 E.48298
G1 X101.664 Y121.352 E.02131
G1 X101.148 Y120.836 E.02288
G1 X100.903 Y120.202 E.02131
G1 X100.903 Y99.798 E.63975
G1 X101.127 Y99.22 E.01944
G1 X101.456 Y99.383 F9000
G1 F1200
G1 X101.883 Y98.956 E.01893
G1 X102.329 Y98.78 E.01503
G1 X117.702 Y98.784 E.48201
G1 X118.092 Y98.94 E.01317
G1 X118.523 Y99.357 E.0188
G1 X118.72 Y99.829 E.01604
G1 X118.72 Y120.171 E.63781
G1 X118.544 Y120.617 E.01503
G1 X118.117 Y121.044 E.01893
G1 X117.671 Y121.22 E.01503
G1 X102.329 Y121.22 E.48104
G1 X101.883 Y121.044 E.01503
G1 X101.456 Y120.617 E.01893
G1 X101.28 Y120.171 E.01503
G1 X101.28 Y99.829 E.63781
G1 X101.434 Y99.439 E.01315
G1 X101.757 Y99.61 F9000
G1 F1200
G1 X102.11 Y99.257 E.01565
G1 X102.364 Y99.157 E.00856
G1 X117.682 Y99.164 E.48029
G1 X117.9 Y99.267 E.00756
G1 X118.243 Y99.61 E.01521
G1 X118.343 Y99.864 E.00856
G1 X118.343 Y120.136 E.63561
G1 X118.243 Y120.39 E.00856
G1 X117.89 Y120.743 E.01565
G1 X117.636 Y120.843 E.00856
G1 X102.364 Y120.843 E.47884
G1 X102.11 Y120.743 E.00856
G1 X101.757 Y120.39 E.01565
G1 X101.657 Y120.136 E.00856
G1 X101.657 Y99.864 E.63561
G1 X101.735 Y99.666 E.00667
G1 X102.063 Y99.837 F9000
G1 F1200
G1 X102.406 Y99.534 E.01435
G1 X117.594 Y99.534 E.47621
G1 X117.966 Y99.906 E.0165
G1 X117.937 Y120.163 E.63514
G1 X117.594 Y120.466 E.01435
G1 X102.337 Y120.437 E.47837
G1 X102.034 Y120.094 E.01435
G1 X102.063 Y99.897 E.63326
G1 X102.411 Y100.022 F9000
G1 F1200
G1 X102.522 Y99.911 E.00492
G1 X117.478 Y99.911 E.46893
G1 X117.589 Y100.022 E.00492
G1 X117.589 Y119.978 E.62571
G1 X117.478 Y120.089 E.00492
G1 X102.522 Y120.089 E.46893
G1 X102.411 Y119.978 E.00492
G1 X102.411 Y100.082 E.62383
; printing object ON_pin.STL id:0 copy 0
G1 E-7.7 F5400
;WIPE_START
G1 F7200
G1 X102.411 Y100.022 E-.04275
G1 X102.522 Y99.911 E-.11185
G1 X106.937 Y99.911 E-3.1454
;WIPE_END
G1 X103.564 Y101.064 F9000
G1 E11 F2400
;TYPE:Perimeter
;WIDTH:0.419999
G1 F1200
G1 X116.436 Y101.064 E.40359
G1 X116.436 Y107.5 E.2018
G1 X116.436 Y118.936 E.35857
G1 X103.564 Y118.936 E.40359
G1 X103.564 Y101.124 E.55848
G1 X103.187 Y100.687 F9000
G1 F1200
G1 X116.813 Y100.687 E.42723
G1 X116.813 Y107.5 E.21362
G1 X116.813 Y119.313 E.37039
G1 X103.187 Y119.313 E.42723
G1 X103.187 Y100.747 E.58212
G1 X102.81 Y100.31 F9000
;TYPE:External perimeter
G1 F1200
G1 X117.19 Y100.31 E.45087
G1 X117.19 Y107.5 E.22544
G1 X117.19 Y119.69 E.38221
G1 X102.81 Y119.69 E.45087
G1 X102.81 Y100.37 E.60576
G1 E-7.7 F5400
;WIPE_START
G1 F7200
G1 X102.81 Y100.31 E-.04275
G1 X107.382 Y100.31 E-3.25725
;WIPE_END
G1 X115.54 Y101.185 F9000
G1 E11 F2400
;TYPE:Solid infill
;WIDTH:0.425971
G1 F1200
G1 X116.145 Y101.79 E.02725
G1 X116.145 Y102.332 E.01726
G1 X115.168 Y101.355 E.04401
G1 X114.626 Y101.355 E.01726
G1 X116.145 Y102.874 E.06842
G1 X116.145 Y103.415 E.01723
G1 X114.085 Y101.355 E.09279
G1 X113.543 Y101.355 E.01726
G1 X116.145 Y103.957 E.1172
G1 X116.145 Y104.499 E.01726
G1 X113.001 Y101.355 E.14162
G1 X112.46 Y101.355 E.01723
G1 X116.145 Y105.04 E.16599
G1 X116.145 Y105.582 E.01726
G1 X111.918 Y101.355 E.1904
G1 X111.376 Y101.355 E.01726
G1 X116.145 Y106.124 E.21481
G1 X116.145 Y106.666 E.01726
G1 X110.834 Y101.355 E.23923
G1 X110.293 Y101.355 E.01723
G1 X116.145 Y107.207 E.2636
G1 X116.145 Y107.749 E.01726
G1 X109.751 Y101.355 E.28801
G1 X109.209 Y101.355 E.01726
G1 X116.145 Y108.291 E.31242
G1 X116.145 Y108.832 E.01723
G1 X108.668 Y101.355 E.33679
G1 X108.126 Y101.355 E.01726
G1 X116.145 Y109.374 E.36121
G1 X116.145 Y109.916 E.01726
G1 X107.584 Y101.355 E.38562
G1 X107.042 Y101.355 E.01726
G1 X116.145 Y110.458 E.41003
G1 X116.145 Y110.999 E.01723
G1 X106.501 Y101.355 E.4344
G1 X105.959 Y101.355 E.01726
G1 X116.145 Y111.541 E.45882
G1 X116.145 Y112.083 E.01726
G1 X105.417 Y101.355 E.48323
G1 X104.876 Y101.355 E.01723
G1 X116.145 Y112.624 E.5076
G1 X116.145 Y113.166 E.01726
G1 X104.334 Y101.355 E.53201
G1 X103.855 Y101.355 E.01526
G1 X103.855 Y101.417 E.00197
G1 X116.145 Y113.708 E.55361
G1 X116.145 Y114.25 E.01726
G1 X103.855 Y101.959 E.55361
G1 X103.855 Y102.5 E.01723
G1 X116.145 Y114.791 E.55361
G1 X116.145 Y115.333 E.01726
G1 X103.855 Y103.042 E.55361
G1 X103.855 Y103.584 E.01726
G1 X116.145 Y115.875 E.55361
G1 X116.145 Y116.416 E.01723
G1 X103.855 Y104.125 E.55361
G1 X103.855 Y104.667 E.01726
G1 X116.145 Y116.958 E.55361
G1 X116.145 Y117.5 E.01726
G1 X103.855 Y105.209 E.55361
G1 X103.855 Y105.751 E.01726
G1 X116.145 Y118.042 E.55361
G1 X116.145 Y118.583 E.01723
G1 X103.855 Y106.292 E.55361
G1 X103.855 Y106.834 E.01726
G1 X115.666 Y118.645 E.53201
G1 X115.124 Y118.645 E.01726
G1 X103.855 Y107.376 E.5076
G1 X103.855 Y107.917 E.01723
G1 X114.583 Y118.645 E.48323
G1 X114.041 Y118.645 E.01726
G1 X103.855 Y108.459 E.45882
G1 X103.855 Y109.001 E.01726
G1 X113.499 Y118.645 E.4344
G1 X112.957 Y118.645 E.01726
G1 X103.855 Y109.543 E.40999
G1 X103.855 Y110.084 E.01723
G1 X112.416 Y118.645 E.38562
G1 X111.874 Y118.645 E.01726
G1 X103.855 Y110.626 E.36121
G1 X103.855 Y111.168 E.01726
G1 X111.332 Y118.645 E.33679
G1 X110.791 Y118.645 E.01723
G1 X103.855 Y111.709 E.31242
G1 X103.855 Y112.251 E.01726
G1 X110.249 Y118.645 E.28801
G1 X109.707 Y118.645 E.01726
G1 X103.855 Y112.793 E.2636
G1 X103.855 Y113.335 E.01726
G1 X109.165 Y118.645 E.23918
G1 X108.624 Y118.645 E.01723
G1 X103.855 Y113.876 E.21481
G1 X103.855 Y114.418 E.01726
G1 X108.082 Y118.645 E.1904
G1 X107.54 Y118.645 E.01726
G1 X103.855 Y114.96 E.16599
G1 X103.855 Y115.501 E.01723
G1 X106.999 Y118.645 E.14162
G1 X106.457 Y118.645 E.01726
G1 X103.855 Y116.043 E.1172
G1 X103.855 Y116.585 E.01726
G1 X105.915 Y118.645 E.09279
G1 X105.373 Y118.645 E.01726
G1 X103.855 Y117.127 E.06838
G1 X103.855 Y117.668 E.01723
G1 X104.832 Y118.645 E.04401
G1 X104.29 Y118.645 E.01726
G1 X103.685 Y118.04 E.02725
; stop printing object ON_pin.STL id:0 copy 0
M106 S99.45
;LAYER_CHANGE
;Z:0.32
;HEIGHT:0.12
;BEFORE_LAYER_CHANGE
G92 E0
;0.32


G1 E-7.7 F5400
;WIPE_START
G1 F7200
G1 X104.29 Y118.645 E-.60961
G1 X104.832 Y118.645 E-.38618
G1 X103.855 Y117.668 E-.98445
G1 X103.855 Y117.127 E-.38546
G1 X104.782 Y118.055 E-.9343
;WIPE_END
G1 Z.32 F9000
;AFTER_LAYER_CHANGE
;0.32
M104 S200 ; set temperature
G1 X104.782 Y125.654
G1 E11 F2400
;TYPE:Skirt/Brim
;WIDTH:0.42
G1 F3789
G1 X101.772 Y125.654 E.0592
G1 X100.096 Y125.259 E.03387
G1 X99.117 Y124.555 E.02372
G1 X97.945 Y123.383 E.0326
G1 X97.04 Y121.919 E.03385
G1 X96.846 Y120.728 E.02373
G1 X96.846 Y99.272 E.42202
G1 X97.241 Y97.596 E.03387
G1 X97.945 Y96.617 E.02372
G1 X99.117 Y95.445 E.0326
G1 X100.581 Y94.54 E.03385
G1 X101.772 Y94.346 E.02373
G1 X118.228 Y94.346 E.32367
G1 X119.904 Y94.741 E.03387
G1 X120.883 Y95.445 E.02372
G1 X122.055 Y96.617 E.0326
G1 X122.96 Y98.081 E.03385
G1 X123.154 Y99.272 E.02373
G1 X123.154 Y120.728 E.42202
G1 X122.759 Y122.404 E.03387
G1 X122.055 Y123.383 E.02372
G1 X120.883 Y124.555 E.0326
G1 X119.419 Y125.46 E.03385
G1 X118.228 Y125.654 E.02373
G1 X104.842 Y125.654 E.26329
G1 X104.842 Y125.277 F9000
G1 F3789
G1 X101.772 Y125.277 E.06038
G1 X100.188 Y124.883 E.03211
G1 X99.384 Y124.288 E.01967
G1 X98.212 Y123.116 E.0326
G1 X97.371 Y121.718 E.03209
G1 X97.223 Y120.728 E.01969
G1 X97.223 Y99.272 E.42202
G1 X97.617 Y97.688 E.03211
G1 X98.212 Y96.884 E.01967
G1 X99.384 Y95.712 E.0326
G1 X100.782 Y94.871 E.03209
G1 X101.772 Y94.723 E.01969
G1 X118.228 Y94.723 E.32367
G1 X119.812 Y95.117 E.03211
G1 X120.616 Y95.712 E.01967
G1 X121.788 Y96.884 E.0326
G1 X122.629 Y98.282 E.03209
G1 X122.777 Y99.272 E.01969
G1 X122.777 Y120.728 E.42202
G1 X122.383 Y122.312 E.03211
G1 X121.788 Y123.116 E.01967
G1 X120.616 Y124.288 E.0326
G1 X119.218 Y125.129 E.03209
G1 X118.228 Y125.277 E.01969
G1 X104.902 Y125.277 E.26211
; printing object ON_pin.STL id:0 copy 0
G1 E-7.7 F5400
;WIPE_START
G1 F7200
G1 X104.842 Y125.277 E-.04275
G1 X101.772 Y125.277 E-2.18737
G1 X100.315 Y124.915 E-1.06988
;WIPE_END
G1 X103.528 Y118.972 F9000
G1 E11 F2400
;TYPE:Perimeter
;WIDTH:0.439999
G1 F3600
G1 X103.528 Y101.028 E.37085
G1 X116.472 Y101.028 E.26751
G1 X116.472 Y107.5 E.13376
G1 X116.472 Y118.972 E.23709
G1 X103.588 Y118.972 E.26627
G1 X103.114 Y119.386 F9000
G1 F3600
G1 X103.114 Y100.614 E.38796
G1 X116.886 Y100.614 E.28462
G1 X116.886 Y107.5 E.14231
G1 X116.886 Y119.386 E.24565
G1 X103.174 Y119.386 E.28338
G1 X102.71 Y119.79 F9000
;TYPE:External perimeter
;WIDTH:0.419999
G1 F2700
G1 X102.71 Y100.21 E.38512
G1 X117.29 Y100.21 E.28677
G1 X117.29 Y107.5 E.14339
G1 X117.29 Y119.79 E.24173
G1 X102.77 Y119.79 E.28559
G1 E-7.7 F5400
;WIPE_START
G1 F7200
G1 X102.71 Y119.79 E-.04275
G1 X102.71 Y115.218 E-3.25725
;WIPE_END
G1 X103.96 Y101.381 F9000
G1 E11 F2400
;TYPE:Solid infill
;WIDTH:0.540506
G1 F3000
G1 X103.914 Y101.336 E.00165
G1 X103.852 Y101.352 E.00164
G1 X103.836 Y101.414 E.00164
G1 X103.881 Y101.46 E.00165
G1 X103.943 Y101.443 E.00165
;WIDTH:0.439999
G1 X103.847 Y102.105 E.01382
G1 X104.605 Y101.347 E.02215
G1 X104.699 Y101.274 E.00246
;WIDTH:0.402876
G1 X104.794 Y101.201 E.00225
;WIDTH:0.365752
G1 X104.753 Y101.212 E.00072
G1 X104.734 Y101.141 E.00125
G1 X104.805 Y101.16 E.00125
;WIDTH:0.439999
G1 X105.191 Y101.347 E.00886
G1 X103.847 Y102.691 E.03928
G1 X103.847 Y103.277 E.01211
G1 X105.777 Y101.347 E.05641
G1 X106.362 Y101.347 E.01209
G1 X103.847 Y103.862 E.07351
G1 X103.847 Y104.448 E.01211
G1 X106.948 Y101.347 E.09063
G1 X107.534 Y101.347 E.01211
G1 X103.847 Y105.034 E.10776
G1 X103.847 Y105.62 E.01211
G1 X108.12 Y101.347 E.12489
G1 X108.706 Y101.347 E.01211
G1 X103.847 Y106.206 E.14202
G1 X103.847 Y106.792 E.01211
G1 X109.292 Y101.347 E.15914
G1 X109.877 Y101.347 E.01209
G1 X103.847 Y107.377 E.17624
G1 X103.847 Y107.963 E.01211
G1 X110.463 Y101.347 E.19337
G1 X111.049 Y101.347 E.01211
G1 X103.847 Y108.549 E.2105
G1 X103.847 Y109.135 E.01211
G1 X111.635 Y101.347 E.22762
G1 X112.221 Y101.347 E.01211
G1 X103.847 Y109.721 E.24475
G1 X103.847 Y110.307 E.01211
G1 X112.807 Y101.347 E.26188
G1 X113.392 Y101.347 E.01209
G1 X103.847 Y110.892 E.27898
G1 X103.847 Y111.478 E.01211
G1 X113.978 Y101.347 E.2961
G1 X114.564 Y101.347 E.01211
G1 X103.847 Y112.064 E.31323
G1 X103.847 Y112.65 E.01211
G1 X115.15 Y101.347 E.33036
G1 X115.736 Y101.347 E.01211
G1 X103.847 Y113.236 E.34748
G1 X103.847 Y113.822 E.01211
G1 X116.153 Y101.516 E.35967
G1 X116.22 Y101.395 E.00286
;WIDTH:0.402876
G1 X116.287 Y101.273 E.00262
;WIDTH:0.365752
G1 X116.246 Y101.284 E.00072
G1 X116.227 Y101.213 E.00125
G1 X116.298 Y101.232 E.00125
G1 X116.153 Y102.102 F9000
;WIDTH:0.439999
G1 F3000
G1 X103.847 Y114.407 E.35966
G1 X103.847 Y114.993 E.01211
G1 X116.153 Y102.688 E.35966
G1 X116.153 Y103.274 E.01211
G1 X103.847 Y115.579 E.35966
G1 X103.847 Y116.165 E.01211
G1 X116.153 Y103.86 E.35966
G1 X116.153 Y104.446 E.01211
G1 X103.847 Y116.751 E.35966
G1 X103.847 Y117.337 E.01211
G1 X116.153 Y105.031 E.35967
G1 X116.153 Y105.617 E.01211
G1 X103.847 Y117.922 E.35966
G1 X103.765 Y118.795 F9000
;WIDTH:0.365752
G1 F3000
G1 X103.724 Y118.806 E.00072
G1 X103.705 Y118.735 E.00125
G1 X103.776 Y118.754 E.00125
;WIDTH:0.402876
G1 X103.812 Y118.631 E.00241
;WIDTH:0.439999
G1 X103.847 Y118.508 E.00264
G1 X116.153 Y106.203 E.35966
G1 X116.153 Y106.789 E.01211
G1 X104.289 Y118.653 E.34675
G1 X104.875 Y118.653 E.01211
G1 X116.153 Y107.375 E.32963
G1 X116.153 Y107.961 E.01211
G1 X105.461 Y118.653 E.3125
G1 X106.046 Y118.653 E.01209
G1 X116.153 Y108.546 E.2954
G1 X116.153 Y109.132 E.01211
G1 X106.632 Y118.653 E.27827
G1 X107.218 Y118.653 E.01211
G1 X116.153 Y109.718 E.26115
G1 X116.153 Y110.304 E.01211
G1 X107.804 Y118.653 E.24402
G1 X108.39 Y118.653 E.01211
G1 X116.153 Y110.89 E.22689
G1 X116.153 Y111.476 E.01211
G1 X108.976 Y118.653 E.20976
G1 X109.561 Y118.653 E.01209
G1 X116.153 Y112.061 E.19267
G1 X116.153 Y112.647 E.01211
G1 X110.147 Y118.653 E.17554
G1 X110.733 Y118.653 E.01211
G1 X116.153 Y113.233 E.15841
G1 X116.153 Y113.819 E.01211
G1 X111.319 Y118.653 E.14129
G1 X111.905 Y118.653 E.01211
G1 X116.153 Y114.405 E.12416
G1 X116.153 Y114.991 E.01211
G1 X112.491 Y118.653 E.10703
G1 X113.076 Y118.653 E.01209
G1 X116.153 Y115.576 E.08993
G1 X116.153 Y116.162 E.01211
G1 X113.662 Y118.653 E.07281
G1 X114.248 Y118.653 E.01211
G1 X116.153 Y116.748 E.05568
G1 X116.153 Y117.334 E.01211
G1 X114.834 Y118.653 E.03855
G1 X115.42 Y118.653 E.01211
G1 X116.153 Y117.92 E.02142
G1 X116.17 Y118.593 E.01391
;WIDTH:0.526026
G1 X116.126 Y118.549 E.00155
G1 X116.065 Y118.565 E.00157
G1 X116.049 Y118.626 E.00157
G1 X116.093 Y118.67 E.00155
G1 X116.154 Y118.654 E.00157
