; generated by PrusaSlicer 2.7.1+win64 on 2024-02-29 at 09:23:30 UTC

; 

; external perimeters extrusion width = 0.42mm
; perimeters extrusion width = 0.44mm
; infill extrusion width = 0.44mm
; solid infill extrusion width = 0.44mm
; top infill extrusion width = 0.40mm
; support material extrusion width = 0.36mm
; first layer extrusion width = 0.42mm

M201 X500 Y500 Z100 E5000 ; sets maximum accelerations, mm/sec^2
M203 X500 Y500 Z10 E60 ; sets maximum feedrates, mm / sec
M204 S500 T1000 ; sets acceleration (S) and retract acceleration (R), mm/sec^2
M205 X8.00 Y8.00 Z0.40 E5.00 ; sets the jerk limits, mm/sec
M205 S0 T0 ; sets the minimum extruding and travel feed rate, mm/sec

; printing object FitterForPolaroid.STL id:0 copy 0
; stop printing object FitterForPolaroid.STL id:0 copy 0

;TYPE:Custom
G90 ; use absolute coordinates
M83 ; extruder relative mode
M104 S150 ; set temporary nozzle temp to prevent oozing during homing
M140 S60 ; set final bed temp
G4 S30 ; allow partial nozzle warmup
G28 ; home all axis
G1 Z50 F240
G1 X2.0 Y10 F3000
M104 S205 ; set final nozzle temp
M190 S60 ; wait for bed temp to stabilize
M109 S205 ; wait for nozzle temp to stabilize
G1 Z0.28 F240
G92 E0
G1 X2.0 Y140 E10 F1500 ; prime the nozzle
G1 X2.3 Y140 F5000
G92 E0
G1 X2.3 Y10 E10 F1200 ; prime the nozzle
G92 E0
G21 ; set units to millimeters
G90 ; use absolute coordinates
M83 ; use relative distances for extrusion
; Filament gcode
M107
;LAYER_CHANGE
;Z:0.2
;HEIGHT:0.2
;BEFORE_LAYER_CHANGE
G92 E0
;0.2


G1 E-11 F5400
G1 Z.2 F9000
;AFTER_LAYER_CHANGE
;0.2
G1 X76.214 Y56.103
G1 Z.2
G1 E11 F2400
M204 S500
;TYPE:Skirt/Brim
;WIDTH:0.42
G1 F1200
G1 X76.636 Y55.588 E.02088
G1 X78.27 Y53.954 E.07245
G1 X79.668 Y53.113 E.05115
G1 X80.658 Y52.964 E.03139
G1 X151.35 Y52.964 E2.2165
G1 X152.933 Y53.358 E.05115
G1 X153.738 Y53.954 E.03141
G1 X160.71 Y60.925 E.30913
G1 X161.525 Y62.245 E.04864
G1 X162.86 Y66.248 E.13231
G1 X163.033 Y67.316 E.03392
G1 X163.033 Y152.684 E2.67665
G1 X162.86 Y153.752 E.03392
G1 X161.525 Y157.755 E.13231
G1 X160.71 Y159.075 E.04864
G1 X153.738 Y166.047 E.30915
G1 X152.34 Y166.887 E.05114
G1 X151.35 Y167.036 E.03139
G1 X68.65 Y167.036 E2.593
G1 X67.067 Y166.642 E.05115
G1 X66.262 Y166.047 E.03139
G1 X59.291 Y159.075 E.30913
G1 X58.475 Y157.755 E.04866
G1 X57.14 Y153.752 E.13231
G1 X56.967 Y152.684 E.03392
G1 X56.967 Y85.995 E2.09099
G1 X57.534 Y84.122 E.06136
G1 X76.181 Y56.152 E1.054
; printing object FitterForPolaroid.STL id:0 copy 0
G1 E-7.7 F5400
;WIPE_START
G1 F7200
G1 X76.214 Y56.103 E-.04209
G1 X76.636 Y55.588 E-.47439
G1 X78.27 Y53.954 E-1.64646
G1 X79.638 Y53.131 E-1.13706
;WIPE_END
G1 X158.322 Y63.313 F9000
G1 E11 F2400
;TYPE:Support material
G1 F1200
G1 X158.322 Y65.981 E.08365
G1 X159.656 Y67.316 E.05917
G1 X159.656 Y152.684 E2.67665
G1 X158.322 Y154.019 E.05917
G1 X158.322 Y156.687 E.08365
G1 X151.35 Y163.659 E.30915
G1 X68.65 Y163.659 E2.593
G1 X61.678 Y156.687 E.30915
G1 X61.678 Y154.019 E.08365
G1 X60.344 Y152.684 E.05917
G1 X60.344 Y85.995 E2.09099
G1 X61.979 Y84.361 E.07248
G1 X76.632 Y84.361 E.45943
G1 X78.267 Y85.995 E.07248
G1 X78.267 Y136.696 E1.58969
G1 X81.969 Y140.399 E.16418
G1 X132.694 Y140.399 E1.59045
G1 X136.396 Y136.696 E.16418
G1 X136.396 Y77.967 E1.84141
G1 X135.062 Y76.632 E.05917
G1 X135.062 Y75.298 E.04183
G1 X134.028 Y74.264 E.04585
G1 X132.694 Y74.264 E.04183
G1 X131.359 Y72.93 E.05917
G1 X80.658 Y72.93 E1.58969
G1 X79.024 Y71.295 E.07248
G1 X79.024 Y57.976 E.41761
G1 X80.658 Y56.341 E.07248
G1 X151.35 Y56.341 E2.2165
G1 X158.282 Y63.273 E.30738
G1 E-7.7 F5400
;WIPE_START
G1 F7200
G1 X155.007 Y59.998 E-3.3
;WIPE_END
G1 X80.69 Y56.79 F9000
G1 E11 F2400
G1 F1200
G1 X151.319 Y56.79 E2.21452
G1 X151.738 Y57.209 E.01858
G1 X80.271 Y57.209 E2.2408
G1 X79.852 Y57.628 E.01858
G1 X152.157 Y57.628 E2.26707
G1 X152.576 Y58.047 E.01858
G1 X79.433 Y58.047 E2.29335
G1 X79.363 Y58.116 E.00308
G1 X79.363 Y58.466 E.01097
G1 X152.995 Y58.466 E2.30868
G1 X153.414 Y58.885 E.01858
G1 X79.363 Y58.885 E2.32182
G1 X79.363 Y59.304 E.01314
G1 X153.833 Y59.304 E2.33495
G1 X154.252 Y59.723 E.01858
G1 X79.363 Y59.723 E2.34809
G1 X79.363 Y60.142 E.01314
G1 X154.671 Y60.142 E2.36123
G1 X155.09 Y60.561 E.01858
G1 X79.363 Y60.561 E2.37437
G1 X79.363 Y60.98 E.01314
G1 X155.509 Y60.98 E2.3875
G1 X155.927 Y61.399 E.01856
G1 X79.363 Y61.399 E2.40061
G1 X79.363 Y61.818 E.01314
G1 X156.346 Y61.818 E2.41375
G1 X156.765 Y62.237 E.01858
G1 X79.363 Y62.237 E2.42689
G1 X79.363 Y62.656 E.01314
G1 X157.184 Y62.656 E2.44002
G1 X157.603 Y63.075 E.01858
G1 X79.363 Y63.075 E2.45316
G1 X79.363 Y63.494 E.01314
G1 X157.982 Y63.494 E2.46504
G1 X157.982 Y63.913 E.01314
G1 X79.363 Y63.913 E2.46504
G1 X79.363 Y64.332 E.01314
G1 X157.982 Y64.332 E2.46504
G1 X157.982 Y64.75 E.01311
G1 X79.363 Y64.75 E2.46504
G1 X79.363 Y65.169 E.01314
G1 X157.982 Y65.169 E2.46504
G1 X157.982 Y65.588 E.01314
G1 X79.363 Y65.588 E2.46504
G1 X79.363 Y66.007 E.01314
G1 X157.982 Y66.007 E2.46504
G1 X157.982 Y66.122 E.00361
G1 X158.287 Y66.426 E.0135
G1 X79.363 Y66.426 E2.47461
G1 X79.363 Y66.845 E.01314
G1 X158.706 Y66.845 E2.48774
G1 X159.125 Y67.264 E.01858
G1 X79.363 Y67.264 E2.50088
G1 X79.363 Y67.683 E.01314
G1 X159.316 Y67.683 E2.50687
G1 X159.316 Y68.102 E.01314
G1 X79.363 Y68.102 E2.50687
G1 X79.363 Y68.521 E.01314
G1 X159.316 Y68.521 E2.50687
G1 X159.316 Y68.94 E.01314
G1 X79.363 Y68.94 E2.50687
G1 X79.363 Y69.359 E.01314
G1 X159.316 Y69.359 E2.50687
G1 X159.316 Y69.778 E.01314
G1 X79.363 Y69.778 E2.50687
G1 X79.363 Y70.197 E.01314
G1 X159.316 Y70.197 E2.50687
G1 X159.316 Y70.616 E.01314
G1 X79.363 Y70.616 E2.50687
G1 X79.363 Y71.035 E.01314
G1 X159.316 Y71.035 E2.50687
G1 X159.316 Y71.454 E.01314
G1 X79.662 Y71.454 E2.4975
G1 X80.081 Y71.873 E.01858
G1 X159.316 Y71.873 E2.48436
G1 X159.316 Y72.292 E.01314
G1 X80.5 Y72.292 E2.47122
G1 X80.799 Y72.59 E.01324
G1 X81.096 Y72.59 E.00931
G1 E-7.7 F5400
;WIPE_START
G1 F7200
G1 X80.799 Y72.59 E-.21161
G1 X80.5 Y72.292 E-.30078
G1 X84.412 Y72.292 E-2.78761
;WIPE_END
G1 X131.621 Y72.711 F9000
G1 E11 F2400
G1 F1200
G1 X159.316 Y72.711 E.86836
G1 X159.316 Y73.13 E.01314
G1 X132.04 Y73.13 E.85522
G1 X132.459 Y73.549 E.01858
G1 X159.316 Y73.549 E.84208
G1 X159.316 Y73.968 E.01314
G1 X132.834 Y73.925 E.83033
G1 E-7.7 F5400
;WIPE_START
G1 F7200
G1 X137.466 Y73.933 E-3.3
;WIPE_END
G1 X134.345 Y74.101 F9000
G1 E11 F2400
G1 F1200
G1 X134.631 Y74.387 E.01268
G1 X159.316 Y74.387 E.77398
G1 X159.316 Y74.806 E.01314
G1 X135.05 Y74.806 E.76084
G1 X135.401 Y75.225 E.01714
G1 X159.316 Y75.225 E.74984
G1 X159.316 Y75.644 E.01314
G1 X135.401 Y75.644 E.74984
G1 X135.401 Y76.063 E.01314
G1 X159.316 Y76.063 E.74984
G1 X159.316 Y76.482 E.01314
G1 X135.401 Y76.482 E.74984
G1 X135.81 Y76.901 E.01836
G1 X159.316 Y76.901 E.73701
G1 X159.316 Y77.32 E.01314
G1 X136.229 Y77.32 E.72388
G1 X136.648 Y77.739 E.01858
G1 X159.316 Y77.739 E.71074
G1 X159.316 Y78.158 E.01314
G1 X136.736 Y78.158 E.70798
G1 X136.736 Y78.577 E.01314
G1 X159.316 Y78.577 E.70798
G1 X159.316 Y78.996 E.01314
G1 X136.736 Y78.996 E.70798
G1 X136.736 Y79.415 E.01314
G1 X159.316 Y79.415 E.70798
G1 X159.316 Y79.834 E.01314
G1 X136.736 Y79.834 E.70798
G1 X136.736 Y80.253 E.01314
G1 X159.316 Y80.253 E.70798
G1 X159.316 Y80.672 E.01314
G1 X136.736 Y80.672 E.70798
G1 X136.736 Y81.091 E.01314
G1 X159.316 Y81.091 E.70798
G1 X159.316 Y81.51 E.01314
G1 X136.736 Y81.51 E.70798
G1 X136.736 Y81.929 E.01314
G1 X159.316 Y81.929 E.70798
G1 X159.316 Y82.348 E.01314
G1 X136.736 Y82.348 E.70798
G1 X136.736 Y82.766 E.01311
G1 X159.316 Y82.766 E.70798
G1 X159.316 Y83.185 E.01314
G1 X136.736 Y83.185 E.70798
G1 X136.736 Y83.604 E.01314
G1 X159.316 Y83.604 E.70798
G1 X159.316 Y84.023 E.01314
G1 X136.736 Y84.023 E.70798
G1 X136.736 Y84.442 E.01314
G1 X159.316 Y84.442 E.70798
G1 X159.316 Y84.861 E.01314
G1 X136.736 Y84.861 E.70798
G1 X136.736 Y85.28 E.01314
G1 X159.316 Y85.28 E.70798
G1 X159.316 Y85.699 E.01314
G1 X136.736 Y85.699 E.70798
G1 X136.736 Y86.118 E.01314
G1 X159.316 Y86.118 E.70798
G1 X159.316 Y86.537 E.01314
G1 X136.736 Y86.537 E.70798
G1 X136.736 Y86.956 E.01314
G1 X159.316 Y86.956 E.70798
G1 X159.316 Y87.375 E.01314
G1 X136.736 Y87.375 E.70798
G1 X136.736 Y87.794 E.01314
G1 X159.316 Y87.794 E.70798
G1 X159.316 Y88.213 E.01314
G1 X136.736 Y88.213 E.70798
G1 X136.736 Y88.632 E.01314
G1 X159.316 Y88.632 E.70798
G1 X159.316 Y89.051 E.01314
G1 X136.736 Y89.051 E.70798
G1 X136.736 Y89.47 E.01314
G1 X159.316 Y89.47 E.70798
G1 X159.316 Y89.889 E.01314
G1 X136.736 Y89.889 E.70798
G1 X136.736 Y90.308 E.01314
G1 X159.316 Y90.308 E.70798
G1 X159.316 Y90.727 E.01314
G1 X136.736 Y90.727 E.70798
G1 X136.736 Y91.146 E.01314
G1 X159.316 Y91.146 E.70798
G1 X159.316 Y91.565 E.01314
G1 X136.736 Y91.565 E.70798
G1 X136.736 Y91.984 E.01314
G1 X159.316 Y91.984 E.70798
G1 X159.316 Y92.403 E.01314
G1 X136.736 Y92.403 E.70798
G1 X136.736 Y92.822 E.01314
G1 X159.316 Y92.822 E.70798
G1 X159.316 Y93.241 E.01314
G1 X136.736 Y93.241 E.70798
G1 X136.736 Y93.66 E.01314
G1 X159.316 Y93.66 E.70798
G1 X159.316 Y94.079 E.01314
G1 X136.736 Y94.079 E.70798
G1 X136.736 Y94.498 E.01314
G1 X159.316 Y94.498 E.70798
G1 X159.316 Y94.917 E.01314
G1 X136.736 Y94.917 E.70798
G1 X136.736 Y95.336 E.01314
G1 X159.316 Y95.336 E.70798
G1 X159.316 Y95.755 E.01314
G1 X136.736 Y95.755 E.70798
G1 X136.736 Y96.174 E.01314
G1 X159.316 Y96.174 E.70798
G1 X159.316 Y96.593 E.01314
G1 X136.736 Y96.593 E.70798
G1 X136.736 Y97.012 E.01314
G1 X159.316 Y97.012 E.70798
G1 X159.316 Y97.431 E.01314
G1 X136.736 Y97.431 E.70798
G1 X136.736 Y97.85 E.01314
G1 X159.316 Y97.85 E.70798
G1 X159.316 Y98.269 E.01314
G1 X136.736 Y98.269 E.70798
G1 X136.736 Y98.688 E.01314
G1 X159.316 Y98.688 E.70798
G1 X159.316 Y99.107 E.01314
G1 X136.736 Y99.107 E.70798
G1 X136.736 Y99.526 E.01314
G1 X159.316 Y99.526 E.70798
G1 X159.316 Y99.945 E.01314
G1 X136.736 Y99.945 E.70798
G1 X136.736 Y100.364 E.01314
G1 X159.316 Y100.364 E.70798
G1 X159.316 Y100.783 E.01314
G1 X136.736 Y100.783 E.70798
G1 X136.736 Y101.201 E.01311
G1 X159.316 Y101.201 E.70798
G1 X159.316 Y101.62 E.01314
G1 X136.736 Y101.62 E.70798
G1 X136.736 Y102.039 E.01314
G1 X159.316 Y102.039 E.70798
G1 X159.316 Y102.458 E.01314
G1 X136.736 Y102.458 E.70798
G1 X136.736 Y102.877 E.01314
G1 X159.316 Y102.877 E.70798
G1 X159.316 Y103.296 E.01314
G1 X136.736 Y103.296 E.70798
G1 X136.736 Y103.715 E.01314
G1 X159.316 Y103.715 E.70798
G1 X159.316 Y104.134 E.01314
G1 X136.736 Y104.134 E.70798
G1 X136.736 Y104.553 E.01314
G1 X159.316 Y104.553 E.70798
G1 X159.316 Y104.972 E.01314
G1 X136.736 Y104.972 E.70798
G1 X136.736 Y105.391 E.01314
G1 X159.316 Y105.391 E.70798
G1 X159.316 Y105.81 E.01314
G1 X136.736 Y105.81 E.70798
G1 X136.736 Y106.229 E.01314
G1 X159.316 Y106.229 E.70798
G1 X159.316 Y106.648 E.01314
G1 X136.736 Y106.648 E.70798
G1 X136.736 Y107.067 E.01314
G1 X159.316 Y107.067 E.70798
G1 X159.316 Y107.486 E.01314
G1 X136.736 Y107.486 E.70798
G1 X136.736 Y107.905 E.01314
G1 X159.316 Y107.905 E.70798
G1 X159.316 Y108.324 E.01314
G1 X136.736 Y108.324 E.70798
G1 X136.736 Y108.743 E.01314
G1 X159.316 Y108.743 E.70798
G1 X159.316 Y109.162 E.01314
G1 X136.736 Y109.162 E.70798
G1 X136.736 Y109.581 E.01314
G1 X159.316 Y109.581 E.70798
G1 X159.316 Y110 E.01314
G1 X136.736 Y110 E.70798
G1 X136.736 Y110.419 E.01314
G1 X159.316 Y110.419 E.70798
G1 X159.316 Y110.838 E.01314
G1 X136.736 Y110.838 E.70798
G1 X136.736 Y111.257 E.01314
G1 X159.316 Y111.257 E.70798
G1 X159.316 Y111.676 E.01314
G1 X136.736 Y111.676 E.70798
G1 X136.736 Y112.095 E.01314
G1 X159.316 Y112.095 E.70798
G1 X159.316 Y112.514 E.01314
G1 X136.736 Y112.514 E.70798
G1 X136.736 Y112.933 E.01314
G1 X159.316 Y112.933 E.70798
G1 X159.316 Y113.352 E.01314
G1 X136.736 Y113.352 E.70798
G1 X136.736 Y113.771 E.01314
G1 X159.316 Y113.771 E.70798
G1 X159.316 Y114.19 E.01314
G1 X136.736 Y114.19 E.70798
G1 X136.736 Y114.609 E.01314
G1 X159.316 Y114.609 E.70798
G1 X159.316 Y115.028 E.01314
G1 X136.736 Y115.028 E.70798
G1 X136.736 Y115.447 E.01314
G1 X159.316 Y115.447 E.70798
G1 X159.316 Y115.866 E.01314
G1 X136.736 Y115.866 E.70798
G1 X136.736 Y116.285 E.01314
G1 X159.316 Y116.285 E.70798
G1 X159.316 Y116.704 E.01314
G1 X136.736 Y116.704 E.70798
G1 X136.736 Y117.123 E.01314
G1 X159.316 Y117.123 E.70798
G1 X159.316 Y117.542 E.01314
G1 X136.736 Y117.542 E.70798
G1 X136.736 Y117.961 E.01314
G1 X159.316 Y117.961 E.70798
G1 X159.316 Y118.38 E.01314
G1 X136.736 Y118.38 E.70798
G1 X136.736 Y118.799 E.01314
G1 X159.316 Y118.799 E.70798
G1 X159.316 Y119.217 E.01311
G1 X136.736 Y119.217 E.70798
G1 X136.736 Y119.636 E.01314
G1 X159.316 Y119.636 E.70798
G1 X159.316 Y120.055 E.01314
G1 X136.736 Y120.055 E.70798
G1 X136.736 Y120.474 E.01314
G1 X159.316 Y120.474 E.70798
G1 X159.316 Y120.893 E.01314
G1 X136.736 Y120.893 E.70798
G1 X136.736 Y121.312 E.01314
G1 X159.316 Y121.312 E.70798
G1 X159.316 Y121.731 E.01314
G1 X136.736 Y121.731 E.70798
G1 X136.736 Y122.15 E.01314
G1 X159.316 Y122.15 E.70798
G1 X159.316 Y122.569 E.01314
G1 X136.736 Y122.569 E.70798
G1 X136.736 Y122.988 E.01314
G1 X159.316 Y122.988 E.70798
G1 X159.316 Y123.407 E.01314
G1 X136.736 Y123.407 E.70798
G1 X136.736 Y123.826 E.01314
G1 X159.316 Y123.826 E.70798
G1 X159.316 Y124.245 E.01314
G1 X136.736 Y124.245 E.70798
G1 X136.736 Y124.664 E.01314
G1 X159.316 Y124.664 E.70798
G1 X159.316 Y125.083 E.01314
G1 X136.736 Y125.083 E.70798
G1 X136.736 Y125.502 E.01314
G1 X159.316 Y125.502 E.70798
G1 X159.316 Y125.921 E.01314
G1 X136.736 Y125.921 E.70798
G1 X136.736 Y126.34 E.01314
G1 X159.316 Y126.34 E.70798
G1 X159.316 Y126.759 E.01314
G1 X136.736 Y126.759 E.70798
G1 X136.736 Y127.178 E.01314
G1 X159.316 Y127.178 E.70798
G1 X159.316 Y127.597 E.01314
G1 X136.736 Y127.597 E.70798
G1 X136.736 Y128.016 E.01314
G1 X159.316 Y128.016 E.70798
G1 X159.316 Y128.435 E.01314
G1 X136.736 Y128.435 E.70798
G1 X136.736 Y128.854 E.01314
G1 X159.316 Y128.854 E.70798
G1 X159.316 Y129.273 E.01314
G1 X136.736 Y129.273 E.70798
G1 X136.736 Y129.692 E.01314
G1 X159.316 Y129.692 E.70798
G1 X159.316 Y130.111 E.01314
G1 X136.736 Y130.111 E.70798
G1 X136.736 Y130.53 E.01314
G1 X159.316 Y130.53 E.70798
G1 X159.316 Y130.949 E.01314
G1 X136.736 Y130.949 E.70798
G1 X136.736 Y131.368 E.01314
G1 X159.316 Y131.368 E.70798
G1 X159.316 Y131.787 E.01314
G1 X136.736 Y131.787 E.70798
G1 X136.736 Y132.206 E.01314
G1 X159.316 Y132.206 E.70798
G1 X159.316 Y132.625 E.01314
G1 X136.736 Y132.625 E.70798
G1 X136.736 Y133.044 E.01314
G1 X159.316 Y133.044 E.70798
G1 X159.316 Y133.463 E.01314
G1 X136.736 Y133.463 E.70798
G1 X136.736 Y133.882 E.01314
G1 X159.316 Y133.882 E.70798
G1 X159.316 Y134.301 E.01314
G1 X136.736 Y134.301 E.70798
G1 X136.736 Y134.72 E.01314
G1 X159.316 Y134.72 E.70798
G1 X159.316 Y135.139 E.01314
G1 X136.736 Y135.139 E.70798
G1 X136.736 Y135.558 E.01314
G1 X159.316 Y135.558 E.70798
G1 X159.316 Y135.977 E.01314
G1 X136.736 Y135.977 E.70798
G1 X136.736 Y136.396 E.01314
G1 X159.316 Y136.396 E.70798
G1 X159.316 Y136.815 E.01314
G1 X136.736 Y136.815 E.70798
G1 X136.339 Y137.234 E.0181
G1 X159.316 Y137.234 E.72043
G1 X159.316 Y137.652 E.01311
G1 X135.92 Y137.652 E.73357
G1 X135.501 Y138.071 E.01858
G1 X159.316 Y138.071 E.7467
G1 X159.316 Y138.49 E.01314
G1 X135.082 Y138.49 E.75984
G1 X134.663 Y138.909 E.01858
G1 X159.316 Y138.909 E.77298
G1 X159.316 Y139.328 E.01314
G1 X134.244 Y139.328 E.78611
G1 X133.825 Y139.747 E.01858
G1 X159.316 Y139.747 E.79925
G1 X159.316 Y140.166 E.01314
G1 X133.406 Y140.166 E.81239
G1 X132.987 Y140.585 E.01858
G1 X159.316 Y140.585 E.82553
G1 X159.316 Y141.004 E.01314
G1 X60.684 Y141.004 E3.09254
G1 X60.684 Y140.585 E.01314
G1 X81.676 Y140.585 E.65819
G1 X81.257 Y140.166 E.01858
G1 X60.684 Y140.166 E.64505
G1 X60.684 Y139.747 E.01314
G1 X80.838 Y139.747 E.63191
G1 X80.419 Y139.328 E.01858
G1 X60.684 Y139.328 E.61878
G1 X60.684 Y138.909 E.01314
G1 X80 Y138.909 E.60564
G1 X79.581 Y138.49 E.01858
G1 X60.684 Y138.49 E.5925
G1 X60.684 Y138.071 E.01314
G1 X79.162 Y138.071 E.57936
G1 X78.743 Y137.652 E.01858
G1 X60.684 Y137.652 E.56623
G1 X60.684 Y137.234 E.01311
G1 X78.324 Y137.234 E.55309
G1 X77.927 Y136.815 E.0181
